icons/solid/lock-open.svg

<svg width="24" height="24" viewBox="0 0 24 24" fill="none" xmlns="http://www.w3.org/2000/svg">
<path fill-rule="evenodd" clip-rule="evenodd" d="M9 7C9 6.49336 9.16022 5.71113 9.61153 5.0843C10.0261 4.50847 10.7259 4 12 4C13.2741 4 13.9739 4.50847 14.3885 5.0843C14.8398 5.71113 15 6.49336 15 7C15 7.55228 15.4477 8 16 8C16.5523 8 17 7.55228 17 7C17 6.17331 16.7602 4.95553 16.0115 3.9157C15.2261 2.82487 13.9259 2 12 2C10.0741 2 8.77386 2.82487 7.98847 3.9157C7.23978 4.95553 7 6.17331 7 7V10H6C4.34315 10 3 11.3431 3 13V19C3 20.6569 4.34315 22 6 22H18C19.6569 22 21 20.6569 21 19V13C21 11.3431 19.6569 10 18 10H9V7ZM13 15C13 14.4477 12.5523 14 12 14C11.4477 14 11 14.4477 11 15V17C11 17.5523 11.4477 18 12 18C12.5523 18 13 17.5523 13 17V15Z" fill="currentColor"/>
</svg>

<svg width="24" height="24" fill="none" xmlns="http://www.w3.org/2000/svg"><path fill-rule="evenodd" clip-rule="evenodd" d="M9 7c0-.507.16-1.289.612-1.916C10.026 4.508 10.726 4 12 4c1.274 0 1.974.508 2.389 1.084.45.627.611 1.41.611 1.916a1 1 0 102 0c0-.827-.24-2.044-.988-3.084C15.226 2.825 13.926 2 12 2c-1.926 0-3.226.825-4.012 1.916C7.24 4.956 7 6.173 7 7v3H6a3 3 0 00-3 3v6a3 3 0 003 3h12a3 3 0 003-3v-6a3 3 0 00-3-3H9V7zm4 8a1 1 0 10-2 0v2a1 1 0 102 0v-2z" fill="currentColor"/></svg>
